X:1
T:Title
%%score { ( 1 3 ) | 2 }
L:1/8
Q:1/4=108
M:4/4
K:Eb
V:1 treble nm="Grand Piano"
V:3 treble 
V:2 bass 
V:1
 B3 A G2 B2 | [Ge]3 G c2 B2 | A3 G F2 [DB]2 | [Fd]2 [Ec]2 B2 A2 | G3 F E2 G2 | B3 c B2 G2 | %6
w: J.~H.~Burke * * *||||||
 c2 [Ad]2 [Ge]2 z F | G2 [A,DF]2 [G,E]4 | [CEA]3 [CEA] [CEA]2 [Ec]2 | G3 G G2 B2 | F3 F F2 e2 | %11
w: |||||
 d2 c2 B2 A2 | G3 F E2 G2 | B3 c B2 G2 | c2 [Ad]2 [Ge]2 z F | G2 [DF]2 E4 |] %16
w: |||||
V:2
 [E,G,E]3 [E,F,E] [E,B,E]2 [E,G,E]2 | [E,B,]3 [E,B,E] [A,E]2 [G,B,E]2 | %2
 [F,B,D]3 [E,B,E] [D,B,]2 [B,,B,]2 | [F,B,]2 [F,=A,]2 [B,,B,]4 | %4
 [E,B,E]3 [E,A,D] [E,G,]2 [E,B,E]2 | [E,G,E]3 [E,A,E] [E,G,E]2 [E,B,E]2 | %6
 [A,E]2 [F,B,]2 [E,B,]2 [G,B,][A,C] | [B,E]2 B,,2 E,4 | A,,3 A,, A,,2 A,,2 | %9
 [E,B,E]3 [E,B,E] [E,B,E]2 [E,G,E]2 | [F,B,D]3 [F,B,D] [F,B,D]2 [F,CF]2 | %11
 [F,B,F]2 [F,=A,E]2 [B,,B,]4 | [E,B,E]3 [E,A,D] [E,G,]2 [E,B,E]2 | %13
 [E,G,E]3 [E,A,E] [E,G,E]2 [E,B,E]2 | [A,E]2 [F,B,]2 [E,B,]2 [G,B,][A,C] | %15
 [B,E]2 [B,,A,]2 [E,G,]4 |] %16
V:3
 x8 | x8 | x8 | z4 D4 | x8 | x8 | z4 z2 E2 | x8 | x8 | x8 | x8 | z4 D4 | x8 | x8 | z4 z2 E2 | x8 |] %16

